X: 26339
T: Merchant's Daughter, The
R: waltz
M: 3/4
K: Eminor
EF|G4 FE|B4 BA|F2 E2 E2|E4 EF|
G2 A2 B^c|d4 fe|d2 edBA|B4 EF|
G2 A2 Bc|d4 fe|d2 edBc|d4 e>d|
B2 BA FE|E2 D>E FA|F2 E2 E2|E4|

